modules/open-iconic/icons/fullscreen-enter.svg

<svg xmlns="http://www.w3.org/2000/svg" width="8" height="8" viewBox="0 0 8 8">
  <path d="M0 0v4l1.5-1.5 1.5 1.5 1-1-1.5-1.5 1.5-1.5h-4zm5 4l-1 1 1.5 1.5-1.5 1.5h4v-4l-1.5 1.5-1.5-1.5z" />
</svg>

<svg xmlns="http://www.w3.org/2000/svg" width="8" height="8"><path d="M0 0v4l1.5-1.5L3 4l1-1-1.5-1.5L4 0H0zm5 4L4 5l1.5 1.5L4 8h4V4L6.5 5.5 5 4z"/></svg>
